images/50640713.svg

<?xml version="1.0" encoding="UTF-8"?>
<svg xmlns="http://www.w3.org/2000/svg" xmlns:xlink="http://www.w3.org/1999/xlink" width="300pt" height="300pt" viewBox="0 0 300 300" version="1.1">
<defs>
<g>
<symbol overflow="visible" id="glyph0-0">
<path style="stroke:none;" d="M 0.453125 1.59375 L 0.453125 -6.34375 L 4.953125 -6.34375 L 4.953125 1.59375 Z M 0.953125 1.09375 L 4.453125 1.09375 L 4.453125 -5.84375 L 0.953125 -5.84375 Z M 0.953125 1.09375 "/>
</symbol>
<symbol overflow="visible" id="glyph0-1">
<path style="stroke:none;" d="M 0.890625 -6.5625 L 4.65625 -6.5625 L 4.65625 -5.8125 L 1.765625 -5.8125 L 1.765625 -3.875 L 4.375 -3.875 L 4.375 -3.140625 L 1.765625 -3.140625 L 1.765625 0 L 0.890625 0 Z M 0.890625 -6.5625 "/>
</symbol>
<symbol overflow="visible" id="glyph0-2">
<path style="stroke:none;" d="M 3.546875 -5.953125 C 2.898438 -5.953125 2.382812 -5.710938 2 -5.234375 C 1.625 -4.753906 1.4375 -4.101562 1.4375 -3.28125 C 1.4375 -2.445312 1.625 -1.789062 2 -1.3125 C 2.382812 -0.832031 2.898438 -0.59375 3.546875 -0.59375 C 4.191406 -0.59375 4.703125 -0.832031 5.078125 -1.3125 C 5.453125 -1.789062 5.640625 -2.445312 5.640625 -3.28125 C 5.640625 -4.101562 5.453125 -4.753906 5.078125 -5.234375 C 4.703125 -5.710938 4.191406 -5.953125 3.546875 -5.953125 Z M 3.546875 -6.6875 C 4.460938 -6.6875 5.195312 -6.375 5.75 -5.75 C 6.300781 -5.132812 6.578125 -4.3125 6.578125 -3.28125 C 6.578125 -2.238281 6.300781 -1.410156 5.75 -0.796875 C 5.195312 -0.179688 4.460938 0.125 3.546875 0.125 C 2.617188 0.125 1.878906 -0.179688 1.328125 -0.796875 C 0.773438 -1.410156 0.5 -2.238281 0.5 -3.28125 C 0.5 -4.3125 0.773438 -5.132812 1.328125 -5.75 C 1.878906 -6.375 2.617188 -6.6875 3.546875 -6.6875 Z M 3.546875 -6.6875 "/>
</symbol>
<symbol overflow="visible" id="glyph0-3">
<path style="stroke:none;" d="M 0.890625 -6.5625 L 2.078125 -6.5625 L 4.984375 -1.078125 L 4.984375 -6.5625 L 5.84375 -6.5625 L 5.84375 0 L 4.65625 0 L 1.75 -5.484375 L 1.75 0 L 0.890625 0 Z M 0.890625 -6.5625 "/>
</symbol>
<symbol overflow="visible" id="glyph0-4">
<path style="stroke:none;" d="M 0.890625 -6.5625 L 1.765625 -6.5625 L 1.765625 -3.875 L 5 -3.875 L 5 -6.5625 L 5.890625 -6.5625 L 5.890625 0 L 5 0 L 5 -3.125 L 1.765625 -3.125 L 1.765625 0 L 0.890625 0 Z M 0.890625 -6.5625 "/>
</symbol>
</g>
</defs>
<g id="surface19313">
<rect x="0" y="0" width="300" height="300" style="fill:rgb(100%,100%,100%);fill-opacity:1;stroke:none;"/>
<path style="fill:none;stroke-width:1.2;stroke-linecap:butt;stroke-linejoin:miter;stroke:rgb(20%,80%,80%);stroke-opacity:1;stroke-miterlimit:10;" d="M 54.640625 184.566406 L 57.632812 173.785156 "/>
<path style="fill:none;stroke-width:1.2;stroke-linecap:butt;stroke-linejoin:miter;stroke:rgb(0%,0%,0%);stroke-opacity:1;stroke-miterlimit:10;" d="M 57.632812 173.785156 L 60.628906 163 "/>
<path style=" stroke:none;fill-rule:nonzero;fill:rgb(100%,100%,100%);fill-opacity:1;" d="M 51.640625 179.066406 L 57.640625 179.066406 L 57.640625 190.066406 L 51.640625 190.066406 Z M 51.640625 179.066406 "/>
<g style="fill:rgb(20%,80%,80%);fill-opacity:1;">
  <use xlink:href="#glyph0-1" x="51.640625" y="187.729492"/>
</g>
<path style="fill:none;stroke-width:1.2;stroke-linecap:butt;stroke-linejoin:miter;stroke:rgb(0%,0%,0%);stroke-opacity:1;stroke-miterlimit:10;" d="M 60.628906 163 L 44.945312 147.03125 "/>
<path style="fill:none;stroke-width:1.2;stroke-linecap:butt;stroke-linejoin:miter;stroke:rgb(0%,0%,0%);stroke-opacity:1;stroke-miterlimit:10;" d="M 62.816406 157.710938 L 50.269531 144.9375 "/>
<path style="fill:none;stroke-width:1.2;stroke-linecap:butt;stroke-linejoin:miter;stroke:rgb(0%,0%,0%);stroke-opacity:1;stroke-miterlimit:10;" d="M 82.300781 157.402344 L 60.628906 163 "/>
<path style="fill:none;stroke-width:1.2;stroke-linecap:butt;stroke-linejoin:miter;stroke:rgb(0%,0%,0%);stroke-opacity:1;stroke-miterlimit:10;" d="M 44.945312 147.03125 L 50.933594 125.460938 "/>
<path style="fill:none;stroke-width:1.2;stroke-linecap:butt;stroke-linejoin:miter;stroke:rgb(0%,0%,0%);stroke-opacity:1;stroke-miterlimit:10;" d="M 50.933594 125.460938 L 43.09375 117.476562 "/>
<path style="fill:none;stroke-width:1.2;stroke-linecap:butt;stroke-linejoin:miter;stroke:rgb(20%,80%,80%);stroke-opacity:1;stroke-miterlimit:10;" d="M 43.09375 117.476562 L 35.25 109.492188 "/>
<path style="fill:none;stroke-width:1.2;stroke-linecap:butt;stroke-linejoin:miter;stroke:rgb(0%,0%,0%);stroke-opacity:1;stroke-miterlimit:10;" d="M 50.933594 125.460938 L 72.605469 119.863281 "/>
<path style="fill:none;stroke-width:1.2;stroke-linecap:butt;stroke-linejoin:miter;stroke:rgb(0%,0%,0%);stroke-opacity:1;stroke-miterlimit:10;" d="M 54.417969 130 L 71.757812 125.523438 "/>
<path style=" stroke:none;fill-rule:nonzero;fill:rgb(100%,100%,100%);fill-opacity:1;" d="M 29.25 103.992188 L 35.25 103.992188 L 35.25 114.992188 L 29.25 114.992188 Z M 29.25 103.992188 "/>
<g style="fill:rgb(20%,80%,80%);fill-opacity:1;">
  <use xlink:href="#glyph0-1" x="29.25" y="112.655273"/>
</g>
<path style="fill:none;stroke-width:1.2;stroke-linecap:butt;stroke-linejoin:miter;stroke:rgb(0%,0%,0%);stroke-opacity:1;stroke-miterlimit:10;" d="M 72.605469 119.863281 L 88.289062 135.835938 "/>
<path style="fill:none;stroke-width:1.2;stroke-linecap:butt;stroke-linejoin:miter;stroke:rgb(0%,0%,0%);stroke-opacity:1;stroke-miterlimit:10;" d="M 88.289062 135.835938 L 82.300781 157.402344 "/>
<path style="fill:none;stroke-width:1.2;stroke-linecap:butt;stroke-linejoin:miter;stroke:rgb(0%,0%,0%);stroke-opacity:1;stroke-miterlimit:10;" d="M 82.617188 136.582031 L 77.824219 153.835938 "/>
<path style="fill:none;stroke-width:1.2;stroke-linecap:butt;stroke-linejoin:miter;stroke:rgb(0%,0%,0%);stroke-opacity:1;stroke-miterlimit:10;" d="M 82.300781 157.402344 L 90.144531 165.386719 "/>
<path style="fill:none;stroke-width:1.2;stroke-linecap:butt;stroke-linejoin:miter;stroke:rgb(100%,0%,0%);stroke-opacity:1;stroke-miterlimit:10;" d="M 90.144531 165.386719 L 97.984375 173.371094 "/>
<path style="fill:none;stroke-width:1.2;stroke-linecap:butt;stroke-linejoin:miter;stroke:rgb(100%,0%,0%);stroke-opacity:1;stroke-miterlimit:10;" d="M 97.984375 173.371094 L 108.820312 170.574219 "/>
<path style="fill:none;stroke-width:1.2;stroke-linecap:butt;stroke-linejoin:miter;stroke:rgb(0%,0%,0%);stroke-opacity:1;stroke-miterlimit:10;" d="M 108.820312 170.574219 L 119.65625 167.773438 "/>
<path style=" stroke:none;fill-rule:nonzero;fill:rgb(100%,100%,100%);fill-opacity:1;" d="M 93.984375 167.871094 L 101.984375 167.871094 L 101.984375 178.871094 L 93.984375 178.871094 Z M 93.984375 167.871094 "/>
<g style="fill:rgb(100%,0%,0%);fill-opacity:1;">
  <use xlink:href="#glyph0-2" x="93.984375" y="176.53418"/>
</g>
<path style="fill:none;stroke-width:1.2;stroke-linecap:butt;stroke-linejoin:miter;stroke:rgb(0%,0%,0%);stroke-opacity:1;stroke-miterlimit:10;" d="M 119.65625 167.773438 L 127.5 175.761719 "/>
<path style="fill:none;stroke-width:1.2;stroke-linecap:butt;stroke-linejoin:miter;stroke:rgb(0%,0%,100%);stroke-opacity:1;stroke-miterlimit:10;" d="M 127.5 175.761719 L 135.339844 183.746094 "/>
<path style="fill:none;stroke-width:1.2;stroke-linecap:butt;stroke-linejoin:miter;stroke:rgb(0%,0%,0%);stroke-opacity:1;stroke-miterlimit:10;" d="M 124.984375 165.683594 L 131.257812 172.070312 "/>
<path style="fill:none;stroke-width:1.2;stroke-linecap:butt;stroke-linejoin:miter;stroke:rgb(0%,0%,100%);stroke-opacity:1;stroke-miterlimit:10;" d="M 131.257812 172.070312 L 137.53125 178.457031 "/>
<path style="fill:none;stroke-width:1.2;stroke-linecap:butt;stroke-linejoin:miter;stroke:rgb(0%,0%,100%);stroke-opacity:1;stroke-miterlimit:10;" d="M 125.644531 146.207031 L 122.652344 156.992188 "/>
<path style="fill:none;stroke-width:1.2;stroke-linecap:butt;stroke-linejoin:miter;stroke:rgb(0%,0%,0%);stroke-opacity:1;stroke-miterlimit:10;" d="M 122.652344 156.992188 L 119.65625 167.773438 "/>
<path style="fill:none;stroke-width:1.2;stroke-linecap:butt;stroke-linejoin:miter;stroke:rgb(0%,0%,100%);stroke-opacity:1;stroke-miterlimit:10;" d="M 135.339844 183.746094 L 146.175781 180.945312 "/>
<path style="fill:none;stroke-width:1.2;stroke-linecap:butt;stroke-linejoin:miter;stroke:rgb(0%,0%,0%);stroke-opacity:1;stroke-miterlimit:10;" d="M 146.175781 180.945312 L 157.015625 178.148438 "/>
<path style=" stroke:none;fill-rule:nonzero;fill:rgb(100%,100%,100%);fill-opacity:1;" d="M 132.339844 178.246094 L 139.339844 178.246094 L 139.339844 189.246094 L 132.339844 189.246094 Z M 132.339844 178.246094 "/>
<g style="fill:rgb(0%,0%,100%);fill-opacity:1;">
  <use xlink:href="#glyph0-3" x="132.339844" y="186.90918"/>
</g>
<path style="fill:none;stroke-width:1.2;stroke-linecap:butt;stroke-linejoin:miter;stroke:rgb(0%,0%,0%);stroke-opacity:1;stroke-miterlimit:10;" d="M 157.015625 178.148438 L 166.34375 184.328125 "/>
<path style="fill:none;stroke-width:1.2;stroke-linecap:butt;stroke-linejoin:miter;stroke:rgb(0%,0%,100%);stroke-opacity:1;stroke-miterlimit:10;" d="M 166.34375 184.328125 L 175.675781 190.507812 "/>
<path style="fill:none;stroke-width:1.2;stroke-linecap:butt;stroke-linejoin:miter;stroke:rgb(0%,0%,0%);stroke-opacity:1;stroke-miterlimit:10;" d="M 161.789062 174.992188 L 169.253906 179.9375 "/>
<path style="fill:none;stroke-width:1.2;stroke-linecap:butt;stroke-linejoin:miter;stroke:rgb(0%,0%,100%);stroke-opacity:1;stroke-miterlimit:10;" d="M 169.253906 179.9375 L 176.71875 184.882812 "/>
<path style="fill:none;stroke-width:1.2;stroke-linecap:butt;stroke-linejoin:miter;stroke:rgb(0%,0%,0%);stroke-opacity:1;stroke-miterlimit:10;" d="M 163.003906 156.582031 L 157.015625 178.148438 "/>
<path style="fill:none;stroke-width:1.2;stroke-linecap:butt;stroke-linejoin:miter;stroke:rgb(0%,0%,100%);stroke-opacity:1;stroke-miterlimit:10;" d="M 175.675781 190.507812 L 193.199219 176.578125 "/>
<path style=" stroke:none;fill-rule:nonzero;fill:rgb(100%,100%,100%);fill-opacity:1;" d="M 172.675781 185.007812 L 179.675781 185.007812 L 179.675781 196.007812 L 172.675781 196.007812 Z M 172.675781 185.007812 "/>
<g style="fill:rgb(0%,0%,100%);fill-opacity:1;">
  <use xlink:href="#glyph0-3" x="172.675781" y="193.670898"/>
</g>
<path style="fill:none;stroke-width:1.2;stroke-linecap:butt;stroke-linejoin:miter;stroke:rgb(0%,0%,100%);stroke-opacity:1;stroke-miterlimit:10;" d="M 193.199219 176.578125 L 189.28125 166.09375 "/>
<path style="fill:none;stroke-width:1.2;stroke-linecap:butt;stroke-linejoin:miter;stroke:rgb(0%,0%,0%);stroke-opacity:1;stroke-miterlimit:10;" d="M 189.28125 166.09375 L 185.367188 155.609375 "/>
<path style=" stroke:none;fill-rule:nonzero;fill:rgb(100%,100%,100%);fill-opacity:1;" d="M 186.199219 171.078125 L 200.199219 171.078125 L 200.199219 182.078125 L 186.199219 182.078125 Z M 186.199219 171.078125 "/>
<g style="fill:rgb(0%,0%,100%);fill-opacity:1;">
  <use xlink:href="#glyph0-3" x="186.199219" y="179.741211"/>
  <use xlink:href="#glyph0-4" x="193.176758" y="179.741211"/>
</g>
<path style="fill:none;stroke-width:1.2;stroke-linecap:butt;stroke-linejoin:miter;stroke:rgb(0%,0%,0%);stroke-opacity:1;stroke-miterlimit:10;" d="M 185.367188 155.609375 L 191.546875 146.28125 "/>
<path style="fill:none;stroke-width:1.2;stroke-linecap:butt;stroke-linejoin:miter;stroke:rgb(0%,0%,100%);stroke-opacity:1;stroke-miterlimit:10;" d="M 191.546875 146.28125 L 197.726562 136.949219 "/>
<path style="fill:none;stroke-width:1.2;stroke-linecap:butt;stroke-linejoin:miter;stroke:rgb(0%,0%,0%);stroke-opacity:1;stroke-miterlimit:10;" d="M 185.367188 155.609375 L 163.003906 156.582031 "/>
<path style="fill:none;stroke-width:1.2;stroke-linecap:butt;stroke-linejoin:miter;stroke:rgb(0%,0%,0%);stroke-opacity:1;stroke-miterlimit:10;" d="M 183.355469 160.96875 L 165.46875 161.746094 "/>
<path style="fill:none;stroke-width:1.2;stroke-linecap:butt;stroke-linejoin:miter;stroke:rgb(0%,0%,100%);stroke-opacity:1;stroke-miterlimit:10;" d="M 197.726562 136.949219 L 208.894531 137.636719 "/>
<path style="fill:none;stroke-width:1.2;stroke-linecap:butt;stroke-linejoin:miter;stroke:rgb(0%,0%,0%);stroke-opacity:1;stroke-miterlimit:10;" d="M 208.894531 137.636719 L 220.066406 138.324219 "/>
<path style=" stroke:none;fill-rule:nonzero;fill:rgb(100%,100%,100%);fill-opacity:1;" d="M 190.726562 131.449219 L 204.726562 131.449219 L 204.726562 142.449219 L 190.726562 142.449219 Z M 190.726562 131.449219 "/>
<g style="fill:rgb(0%,0%,100%);fill-opacity:1;">
  <use xlink:href="#glyph0-3" x="190.726562" y="140.112305"/>
  <use xlink:href="#glyph0-4" x="197.704102" y="140.112305"/>
</g>
<path style="fill:none;stroke-width:1.2;stroke-linecap:butt;stroke-linejoin:miter;stroke:rgb(0%,0%,0%);stroke-opacity:1;stroke-miterlimit:10;" d="M 220.066406 138.324219 L 230.046875 158.359375 "/>
<path style="fill:none;stroke-width:1.2;stroke-linecap:butt;stroke-linejoin:miter;stroke:rgb(0%,0%,0%);stroke-opacity:1;stroke-miterlimit:10;" d="M 232.425781 119.660156 L 220.066406 138.324219 "/>
<path style="fill:none;stroke-width:1.2;stroke-linecap:butt;stroke-linejoin:miter;stroke:rgb(0%,0%,0%);stroke-opacity:1;stroke-miterlimit:10;" d="M 230.046875 158.359375 L 252.390625 159.730469 "/>
<path style="fill:none;stroke-width:1.2;stroke-linecap:butt;stroke-linejoin:miter;stroke:rgb(0%,0%,0%);stroke-opacity:1;stroke-miterlimit:10;" d="M 252.390625 159.730469 L 258.570312 150.402344 "/>
<path style="fill:none;stroke-width:1.2;stroke-linecap:butt;stroke-linejoin:miter;stroke:rgb(100%,0%,0%);stroke-opacity:1;stroke-miterlimit:10;" d="M 258.570312 150.402344 L 264.75 141.070312 "/>
<path style="fill:none;stroke-width:1.2;stroke-linecap:butt;stroke-linejoin:miter;stroke:rgb(100%,0%,0%);stroke-opacity:1;stroke-miterlimit:10;" d="M 264.75 141.070312 L 259.757812 131.054688 "/>
<path style="fill:none;stroke-width:1.2;stroke-linecap:butt;stroke-linejoin:miter;stroke:rgb(0%,0%,0%);stroke-opacity:1;stroke-miterlimit:10;" d="M 259.757812 131.054688 L 254.769531 121.035156 "/>
<path style=" stroke:none;fill-rule:nonzero;fill:rgb(100%,100%,100%);fill-opacity:1;" d="M 260.75 135.570312 L 268.75 135.570312 L 268.75 146.570312 L 260.75 146.570312 Z M 260.75 135.570312 "/>
<g style="fill:rgb(100%,0%,0%);fill-opacity:1;">
  <use xlink:href="#glyph0-2" x="260.75" y="144.233398"/>
</g>
<path style="fill:none;stroke-width:1.2;stroke-linecap:butt;stroke-linejoin:miter;stroke:rgb(0%,0%,0%);stroke-opacity:1;stroke-miterlimit:10;" d="M 254.769531 121.035156 L 232.425781 119.660156 "/>
<path style="fill:none;stroke-width:1.2;stroke-linecap:butt;stroke-linejoin:miter;stroke:rgb(0%,0%,0%);stroke-opacity:1;stroke-miterlimit:10;" d="M 163.003906 156.582031 L 147.320312 140.609375 "/>
<path style="fill:none;stroke-width:1.2;stroke-linecap:butt;stroke-linejoin:miter;stroke:rgb(0%,0%,0%);stroke-opacity:1;stroke-miterlimit:10;" d="M 147.320312 140.609375 L 136.484375 143.410156 "/>
<path style="fill:none;stroke-width:1.2;stroke-linecap:butt;stroke-linejoin:miter;stroke:rgb(0%,0%,100%);stroke-opacity:1;stroke-miterlimit:10;" d="M 136.484375 143.410156 L 125.644531 146.207031 "/>
<path style="fill:none;stroke-width:1.2;stroke-linecap:butt;stroke-linejoin:miter;stroke:rgb(0%,0%,0%);stroke-opacity:1;stroke-miterlimit:10;" d="M 146.46875 146.269531 L 137.800781 148.507812 "/>
<path style="fill:none;stroke-width:1.2;stroke-linecap:butt;stroke-linejoin:miter;stroke:rgb(0%,0%,100%);stroke-opacity:1;stroke-miterlimit:10;" d="M 137.800781 148.507812 L 129.128906 150.746094 "/>
<path style=" stroke:none;fill-rule:nonzero;fill:rgb(100%,100%,100%);fill-opacity:1;" d="M 122.644531 140.707031 L 129.644531 140.707031 L 129.644531 151.707031 L 122.644531 151.707031 Z M 122.644531 140.707031 "/>
<g style="fill:rgb(0%,0%,100%);fill-opacity:1;">
  <use xlink:href="#glyph0-3" x="122.644531" y="149.370117"/>
</g>
</g>
</svg>

<svg xmlns="http://www.w3.org/2000/svg" xmlns:xlink="http://www.w3.org/1999/xlink" width="300pt" height="300pt" viewBox="0 0 300 300"><defs><symbol overflow="visible"><path d="M.453 1.594v-7.938h4.5v7.938zm.5-.5h3.5v-6.938h-3.5zm0 0"/></symbol><symbol overflow="visible" id="a"><path d="M.89-6.563h3.766v.75h-2.89v1.938h2.61v.734h-2.61V0H.89zm0 0"/></symbol><symbol overflow="visible" id="b"><path d="M3.547-5.953c-.65 0-1.164.242-1.547.72-.375.48-.563 1.13-.563 1.952 0 .835.188 1.49.563 1.967.383.48.898.72 1.547.72.644 0 1.156-.24 1.53-.72.376-.476.564-1.132.564-1.968 0-.822-.187-1.474-.562-1.954-.375-.477-.887-.72-1.53-.72zm0-.734c.914 0 1.648.312 2.203.937.55.617.828 1.438.828 2.47 0 1.042-.277 1.87-.828 2.483-.555.617-1.29.922-2.203.922-.93 0-1.668-.305-2.22-.922C.774-1.41.5-2.237.5-3.28c0-1.033.273-1.853.828-2.47.55-.625 1.29-.938 2.22-.938zm0 0"/></symbol><symbol overflow="visible" id="c"><path d="M.89-6.563H2.08l2.906 5.485v-5.484h.86V0H4.656L1.75-5.484V0H.89zm0 0"/></symbol><symbol overflow="visible" id="d"><path d="M.89-6.563h.876v2.688H5v-2.688h.89V0H5v-3.125H1.766V0H.89zm0 0"/></symbol></defs><g><path fill="#fff" d="M0 0h300v300H0z"/><path d="M54.64 184.566l2.993-10.78" stroke-width="1.2" stroke="#3cc" stroke-miterlimit="10" fill="none"/><path d="M57.633 173.785L60.63 163" stroke-width="1.2" stroke="#000" stroke-miterlimit="10" fill="none"/><path d="M51.64 179.066h6v11h-6zm0 0" fill="#fff"/><use xlink:href="#a" x="51.641" y="187.729" fill="#3cc"/><path d="M60.63 163l-15.685-15.97M62.816 157.71L50.27 144.938M82.3 157.402L60.63 163M44.945 147.03l5.99-21.57M50.934 125.46l-7.84-7.983" stroke-width="1.2" stroke="#000" stroke-miterlimit="10" fill="none"/><path d="M43.094 117.477l-7.844-7.985" stroke-width="1.2" stroke="#3cc" stroke-miterlimit="10" fill="none"/><path d="M50.934 125.46l21.67-5.597M54.418 130l17.34-4.477" stroke-width="1.2" stroke="#000" stroke-miterlimit="10" fill="none"/><path d="M29.25 103.992h6v11h-6zm0 0" fill="#fff"/><use xlink:href="#a" x="29.25" y="112.655" fill="#3cc"/><path d="M72.605 119.863l15.684 15.973M88.29 135.836l-5.99 21.566M82.617 136.582l-4.793 17.254M82.3 157.402l7.845 7.985" stroke-width="1.2" stroke="#000" stroke-miterlimit="10" fill="none"/><path d="M90.145 165.387l7.84 7.984M97.984 173.37l10.836-2.796" stroke-width="1.2" stroke="#f00" stroke-miterlimit="10" fill="none"/><path d="M108.82 170.574l10.836-2.8" stroke-width="1.2" stroke="#000" stroke-miterlimit="10" fill="none"/><path d="M93.984 167.87h8v11h-8zm0 0" fill="#fff"/><use xlink:href="#b" x="93.984" y="176.534" fill="#f00"/><path d="M119.656 167.773l7.844 7.99" stroke-width="1.2" stroke="#000" stroke-miterlimit="10" fill="none"/><path d="M127.5 175.762l7.84 7.984" stroke-width="1.2" stroke="#00f" stroke-miterlimit="10" fill="none"/><path d="M124.984 165.684l6.274 6.386" stroke-width="1.2" stroke="#000" stroke-miterlimit="10" fill="none"/><path d="M131.258 172.07l6.273 6.387M125.645 146.207l-2.993 10.785" stroke-width="1.2" stroke="#00f" stroke-miterlimit="10" fill="none"/><path d="M122.652 156.992l-2.996 10.78" stroke-width="1.2" stroke="#000" stroke-miterlimit="10" fill="none"/><path d="M135.34 183.746l10.836-2.8" stroke-width="1.2" stroke="#00f" stroke-miterlimit="10" fill="none"/><path d="M146.176 180.945l10.84-2.797" stroke-width="1.2" stroke="#000" stroke-miterlimit="10" fill="none"/><path d="M132.34 178.246h7v11h-7zm0 0" fill="#fff"/><use xlink:href="#c" x="132.34" y="186.909" fill="#00f"/><path d="M157.016 178.148l9.328 6.18" stroke-width="1.2" stroke="#000" stroke-miterlimit="10" fill="none"/><path d="M166.344 184.328l9.332 6.18" stroke-width="1.2" stroke="#00f" stroke-miterlimit="10" fill="none"/><path d="M161.79 174.992l7.464 4.946" stroke-width="1.2" stroke="#000" stroke-miterlimit="10" fill="none"/><path d="M169.254 179.938l7.465 4.945" stroke-width="1.2" stroke="#00f" stroke-miterlimit="10" fill="none"/><path d="M163.004 156.582l-5.988 21.566" stroke-width="1.2" stroke="#000" stroke-miterlimit="10" fill="none"/><path d="M175.676 190.508l17.523-13.93" stroke-width="1.2" stroke="#00f" stroke-miterlimit="10" fill="none"/><path d="M172.676 185.008h7v11h-7zm0 0" fill="#fff"/><use xlink:href="#c" x="172.676" y="193.671" fill="#00f"/><path d="M193.2 176.578l-3.92-10.484" stroke-width="1.2" stroke="#00f" stroke-miterlimit="10" fill="none"/><path d="M189.28 166.094l-3.913-10.485" stroke-width="1.2" stroke="#000" stroke-miterlimit="10" fill="none"/><path d="M186.2 171.078h14v11h-14zm0 0" fill="#fff"/><g fill="#00f"><use xlink:href="#c" x="186.199" y="179.741"/><use xlink:href="#d" x="193.177" y="179.741"/></g><path d="M185.367 155.61l6.18-9.33" stroke-width="1.2" stroke="#000" stroke-miterlimit="10" fill="none"/><path d="M191.547 146.28l6.18-9.33" stroke-width="1.2" stroke="#00f" stroke-miterlimit="10" fill="none"/><path d="M185.367 155.61l-22.363.972M183.355 160.97l-17.886.776" stroke-width="1.2" stroke="#000" stroke-miterlimit="10" fill="none"/><path d="M197.727 136.95l11.168.687" stroke-width="1.2" stroke="#00f" stroke-miterlimit="10" fill="none"/><path d="M208.895 137.637l11.17.687" stroke-width="1.2" stroke="#000" stroke-miterlimit="10" fill="none"/><path d="M190.727 131.45h14v11h-14zm0 0" fill="#fff"/><g fill="#00f"><use xlink:href="#c" x="190.727" y="140.112"/><use xlink:href="#d" x="197.704" y="140.112"/></g><path d="M220.066 138.324l9.98 20.035M232.426 119.66l-12.36 18.664M230.047 158.36l22.344 1.37M252.39 159.73l6.18-9.328" stroke-width="1.2" stroke="#000" stroke-miterlimit="10" fill="none"/><path d="M258.57 150.402l6.18-9.332M264.75 141.07l-4.992-10.015" stroke-width="1.2" stroke="#f00" stroke-miterlimit="10" fill="none"/><path d="M259.758 131.055l-4.988-10.02" stroke-width="1.2" stroke="#000" stroke-miterlimit="10" fill="none"/><path d="M260.75 135.57h8v11h-8zm0 0" fill="#fff"/><use xlink:href="#b" x="260.75" y="144.233" fill="#f00"/><path d="M254.77 121.035l-22.344-1.375M163.004 156.582L147.32 140.61M147.32 140.61l-10.836 2.8" stroke-width="1.2" stroke="#000" stroke-miterlimit="10" fill="none"/><path d="M136.484 143.41l-10.84 2.797" stroke-width="1.2" stroke="#00f" stroke-miterlimit="10" fill="none"/><path d="M146.47 146.27l-8.67 2.238" stroke-width="1.2" stroke="#000" stroke-miterlimit="10" fill="none"/><path d="M137.8 148.508l-8.67 2.238" stroke-width="1.2" stroke="#00f" stroke-miterlimit="10" fill="none"/><path d="M122.645 140.707h7v11h-7zm0 0" fill="#fff"/><use xlink:href="#c" x="122.645" y="149.37" fill="#00f"/></g></svg>
